brandFactory_export/1.Light/Infinito_1Light.svg

<?xml version="1.0" encoding="UTF-8"?>
<svg width="24px" height="24px" viewBox="0 0 24 24" version="1.1" xmlns="http://www.w3.org/2000/svg" xmlns:xlink="http://www.w3.org/1999/xlink">
    <title>1.Light/Infinito_1Light</title>
    <g id="Symbols" stroke="none" stroke-width="1" fill="none" fill-rule="evenodd">
        <g id="1.Light/Infinito_1Light" fill="#5CB615" fill-rule="nonzero">
            <path d="M19.1697479,15.7462185 L19.1495798,15.7462185 C17.1966387,15.7394958 13.8722689,13.1714286 12.5478992,11.9210084 C13.8756303,10.6705882 17.210084,8.09579832 19.1630252,8.09579832 L19.1697479,8.09579832 C20.2857143,8.09915966 21.1529412,8.43193277 21.7411765,9.08739496 C22.3327731,9.74285714 22.6285714,10.697479 22.6252384,11.9310924 C22.6218487,14.3915966 21.3915966,15.7462185 19.1697479,15.7462185 M4.47058824,15.7462185 L4.45042017,15.7462185 C3.34117647,15.7462185 2.48067227,15.4168067 1.89243697,14.7714286 C1.29747899,14.1226891 0.994957983,13.1680672 0.991568312,11.9344538 C0.988235294,10.7042017 1.28403361,9.74621849 1.87563025,9.0907563 C2.46722689,8.43529412 3.33109244,8.10252101 4.44705882,8.09915966 L4.45378151,8.09915966 C6.40672269,8.09915966 9.74117647,10.6705882 11.0689076,11.9243697 C9.74789916,13.1680672 6.42689076,15.7394958 4.47058824,15.7462185 M22.4504202,8.31428571 C21.6773109,7.45714286 20.5478992,7.00336134 19.1764706,7 L19.1663866,7 C16.6420168,7 13.0117647,10.0521008 11.8151261,11.1848739 C10.6151261,10.0521008 6.98823529,7 4.46386555,7 L4.45378151,7 C3.08235294,7.00336134 1.94957983,7.4605042 1.17983193,8.31428571 C0.410084034,9.17142857 0.00336134454,10.4218487 0.00670202183,11.9344538 C0.0100840336,13.4470588 0.423529412,14.697479 1.2,15.5478992 C1.97310924,16.394958 3.09915966,16.8420168 4.4605042,16.8420168 L4.48067227,16.8420168 C7.00840336,16.8319328 10.6218487,13.7865546 11.8184874,12.6571429 C13.0151261,13.7865546 16.6319328,16.8319328 19.1529412,16.8420168 L19.1764706,16.8420168 C21.9563025,16.8420168 23.6201681,15.010084 23.6302521,11.9344538 C23.6268908,10.4252101 23.2201681,9.17142857 22.4504202,8.31428571" id="Infinito_1Light"></path>
        </g>
    </g>
</svg>

<svg width="24" height="24" viewBox="0 0 24 24" xmlns="http://www.w3.org/2000/svg"><path d="M19.17 15.746h-.02c-1.953-.007-5.278-2.575-6.602-3.825 1.328-1.25 4.662-3.825 6.615-3.825h.007c1.116.003 1.983.336 2.571.991.592.656.888 1.61.884 2.844-.003 2.46-1.233 3.815-3.455 3.815m-14.7 0h-.02c-1.109 0-1.97-.33-2.558-.975-.595-.648-.897-1.603-.9-2.837-.004-1.23.292-2.188.884-2.843.591-.656 1.455-.988 2.571-.992h.007c1.953 0 5.287 2.572 6.615 3.825-1.321 1.244-4.642 3.815-6.598 3.822m17.98-7.432c-.774-.857-1.903-1.31-3.275-1.314h-.01c-2.524 0-6.154 3.052-7.35 4.185C10.615 10.052 6.987 7 4.463 7h-.01c-1.372.003-2.504.46-3.274 1.314-.77.857-1.177 2.108-1.173 3.62.003 1.513.417 2.763 1.193 3.614.773.847 1.9 1.294 3.26 1.294h.02c2.528-.01 6.142-3.055 7.338-4.185 1.197 1.13 4.814 4.175 7.335 4.185h.023c2.78 0 4.444-1.832 4.454-4.908-.003-1.509-.41-2.763-1.18-3.62" fill="#5CB615" fill-rule="nonzero"/></svg>
